!!!COM: Anonymous
!!!OPR: Missa L'ardant desir
!!!ONM: 2
!!!OTL: Gloria
!!!AGN: Mass; Gloria
!!!SCT: Ano1025b
!!!SCA: Ano1025b
!!!SMS: Capella Sistina 51
!!!folio-OPR:
!!!folio: 90v-104r
!!!voices: 4
**kern	**text	**kern	**text	**kern	**text	**kern	**text
*staff4	*staff4	*staff3	*staff3	*staff2	*staff2	*staff1	*staff1
*Ivox	*	*Ivox	*	*Ivox	*	*Ivox	*
*I"Bassus	*	*I"Tenor	*	*I"Altus	*	*I"Discantus	*
*I'B	*	*I'T	*	*I'A	*	*I'D	*
*>[A,B,C]	*>[A,B,C]	*>[A,B,C]	*>[A,B,C]	*>[A,B,C]	*>[A,B,C]	*>[A,B,C]	*>[A,B,C]
*>A	*>A	*>A	*>A	*>A	*>A	*>A	*>A
*clefF4	*	*clefGv2	*	*clefGv2	*	*clefG2	*
*k[]	*	*k[]	*	*k[]	*	*k[]	*
*M3/1	*	*M3/1	*	*M3/1	*	*M3/1	*
*met(O)	*	*met(O)	*	*met(O)	*	*met(O)	*
*MM312	*	*MM312	*	*MM312	*	*MM312	*
!!section: Et in terra pax
!!!OMD: Et in terra pax
=1-	=1-	=1-	=1-	=1-	=1-	=1-	=1-
!	!	!LO:TX:X=-40:Z=8:t=T&colon; twofold augmentation	!	!	!	!	!
0.r	.	0.r	.	0.A	Et	[0.a	Et
=2	=2	=2	=2	=2	=2	=2	=2
0.r	.	0.r	.	0.c	in	1a]	.
.	.	.	.	.	.	0e	in
=3	=3	=3	=3	=3	=3	=3	=3
0.r	.	0.r	.	0d	ter-	1d	ter-
.	.	.	.	.	.	1f	.
.	.	.	.	1c	.	1e	.
=4	=4	=4	=4	=4	=4	=4	=4
0.r	.	0.r	.	1d	.	2d	.
.	.	.	.	.	.	1d	-ra
.	.	.	.	1.f	-ra	.	.
.	.	.	.	.	.	4c	.
.	.	.	.	.	.	4B	.
.	.	.	.	.	.	1A	pax
.	.	.	.	[2e	pax	.	.
=5	=5	=5	=5	=5	=5	=5	=5
0.r	.	0.r	.	2e]	.	1r	.
.	.	.	.	2c	.	.	.
.	.	.	.	2.d	.	1.f	ho-
.	.	.	.	4c	.	.	.
.	.	.	.	[1A	.	.	.
.	.	.	.	.	.	2e	.
=6	=6	=6	=6	=6	=6	=6	=6
0.r	.	0.r	.	2A]	.	1.e	-mi-
.	.	.	.	2B	.	.	.
.	.	.	.	1c	.	.	.
.	.	.	.	.	.	1.a	.
.	.	.	.	1d	ho-	.	.
=7	=7	=7	=7	=7	=7	=7	=7
0.r	.	0.r	.	1e	-mi-	2g	.
.	.	.	.	.	.	1cc	.
.	.	.	.	2A	.	.	.
.	.	.	.	1d	.	2b	.
.	.	.	.	.	.	2a	.
.	.	.	.	2f	.	2dd	.
=8	=8	=8	=8	=8	=8	=8	=8
0.r	.	0.r	.	2e	.	2cc	.
.	.	.	.	1d	.	2.b	.
.	.	.	.	.	.	4a	.
.	.	.	.	2c	.	1a	.
.	.	.	.	1B	-ni-	.	.
.	.	.	.	.	.	2g#i	-ni-
=9	=9	=9	=9	=9	=9	=9	=9
0.r	.	0.r	.	0A	-bus	1a	-bus
.	.	.	.	.	.	1r	.
.	.	.	.	1r	.	1a	bo-
=10	=10	=10	=10	=10	=10	=10	=10
0.r	.	0.r	.	0D	bo-	0.a	-ne
.	.	.	.	1F	-ne	.	.
=11	=11	=11	=11	=11	=11	=11	=11
0.r	.	0.r	.	1G	vo-	1b-	vo-
.	.	.	.	1A	-lun-	2a	-lun-
.	.	.	.	.	.	1a	-ta-
.	.	.	.	[1c	-ta-	.	.
.	.	.	.	.	.	4g	.
.	.	.	.	.	.	4f	.
=12	=12	=12	=12	=12	=12	=12	=12
0.r	.	0.r	.	1c]	.	2e	.
.	.	.	.	.	.	2.a	.
.	.	.	.	0d	.	.	.
.	.	.	.	.	.	4g	.
.	.	.	.	.	.	4f	.
.	.	.	.	.	.	4e	.
.	.	.	.	.	.	4f	.
.	.	.	.	.	.	4g	.
.	.	.	.	.	.	4f	.
.	.	.	.	.	.	8eL	.
.	.	.	.	.	.	8dJ	.
=13	=13	=13	=13	=13	=13	=13	=13
[0.AA	Lau-	0A	Lau-	0e	.	1.c	.
.	.	.	.	.	.	2d	.
.	.	[1c	.	2.A	-tis.	1e	-tis.
.	.	.	.	4G	.	.	.
=14	=14	=14	=14	=14	=14	=14	=14
1AA]	.	1c]	.	1E	.	1A	.
0D	.	0d	.	1.F	Lau-	1r	.
.	.	.	.	.	.	[1f	Lau-
.	.	.	.	[2A	-da-	.	.
=15	=15	=15	=15	=15	=15	=15	=15
0AA	-da-	0c	-da-	2A]	.	2f]	.
.	.	.	.	4G	.	2.e	-da-
!	!	!	!	!LO:TX:Z=12:t=MS&colon; f m (error)	!	!	!
.	.	.	.	4F	.	.	.
.	.	.	.	1E	-mus	.	.
.	.	.	.	.	.	4d	.
.	.	.	.	.	.	2c	.
2.BB	-mus	1d	-mus	1D	te,	1B	-mus
4C	.	.	.	.	.	.	.
=16	=16	=16	=16	=16	=16	=16	=16
2D	te,	1f	te,	1r	.	1A	te,
1D	be-	.	.	.	.	.	.
.	.	1e	.	1E	lau-	2B	be-
2C	-ne-	.	.	.	.	2c	-ne-
[1D	-di-	1d	.	2.F	-da-	2A	-di-
.	.	.	.	.	.	[2d	.
.	.	.	.	4D	.	.	.
=17	=17	=17	=17	=17	=17	=17	=17
2D]	.	0A	.	4F	.	2d]	.
.	.	.	.	4G	.	.	.
1F	.	.	.	2A	-mus	2c	.
.	.	.	.	1D	te,	1f	.
2G	.	.	.	.	.	.	.
2.A	.	[1c	be-	2r	.	2e	-ci-
.	.	.	.	[2A	be-	[2e	-mus
4G	.	.	.	.	.	.	.
=18	=18	=18	=18	=18	=18	=18	=18
2F	.	1c]	.	2A]	.	4e]	.
.	.	.	.	.	.	4d	.
2E	.	.	.	2G	-ne-	2c	.
2D	.	0d	-ne-	2F	-di-	2B	.
2C	-ci-	.	.	2E	-ci-	2A	.
1BB	-mus	.	.	1D	-mus	1G	te,
=19	=19	=19	=19	=19	=19	=19	=19
0AA	te,	0e	-di-	1C	te,	2r	.
.	.	.	.	.	.	1c	ad-
.	.	.	.	0A	ad-	.	.
.	.	.	.	.	.	2c	-o-
[1D	ad-	[1d	-ci-	.	.	2d	-ra-
.	.	.	.	.	.	[2f	.
=20	=20	=20	=20	=20	=20	=20	=20
1D]	.	1d]	.	1F	-o-	2f]	.
.	.	.	.	.	.	1a	.
1E	-o-	0c	-mus	1G	-ra-	.	.
.	.	.	.	.	.	2g	.
1F	-ra-	.	.	1A	.	2f	-mus
.	.	.	.	.	.	2e	.
=21	=21	=21	=21	=21	=21	=21	=21
0G	-mus	[0.B-i	.	1r	.	1d	te.
.	.	.	.	0d	-mus	1.b-i	Glo-
1r	.	.	.	.	.	.	.
.	.	.	.	.	.	2a	-ri-
=22	=22	=22	=22	=22	=22	=22	=22
0.G	te.	0.B-]	.	0d	te.	2g	-fi-
.	.	.	.	.	.	2f	.
.	.	.	.	.	.	1g	-ca-
.	.	.	.	2r	.	2d	.
.	.	.	.	[2d	Glo-	2g	.
=23	=23	=23	=23	=23	=23	=23	=23
1D	Glo-	[0.A	.	2d]	.	2f	.
.	.	.	.	2f	-ri-	2.a	.
2C	-ri-	.	.	2e	-fi-	.	.
.	.	.	.	.	.	4g	.
2D	-fi-	.	.	2d	.	2f	.
2.AA	-ca-	.	.	2.c	-ca-	2e	.
.	.	.	.	.	.	[2a	.
4BB	.	.	.	4d	.	.	.
=24	=24	=24	=24	=24	=24	=24	=24
2C	.	0.A]	.	2e	.	2a]	.
1.D	-mus	.	.	1f	.	2d	.
.	.	.	.	.	.	1f	.
.	.	.	.	1d	.	.	.
1AA	te.	.	.	.	.	1e	-mus
.	.	.	.	2c#i	-mus	.	.
=25	=25	=25	=25	=25	=25	=25	=25
1r	.	[0.D	te,	1d	te.	0.d	te.
1.A	Gra-	.	.	2r	.	.	.
.	.	.	.	2.F	Gra-	.	.
.	.	.	.	4G	.	.	.
[2F	-ti-	.	.	2A	.	.	.
=26	=26	=26	=26	=26	=26	=26	=26
4F]	.	0.D]	.	2B-i	.	2d	Gra-
4G	.	.	.	.	.	.	.
1A	.	.	.	1A	-ti-	1f	-ti-
2B-i	.	.	.	2G	.	2g	.
1A	.	.	.	1F	-as	1a	.
=27	=27	=27	=27	=27	=27	=27	=27
1G	-as	0d	Gra-	2r	.	1b-i	-as
.	.	.	.	2G	a-	.	.
1F	a-	.	.	2.A	.	1a	.
.	.	.	.	4Bni	.	.	.
1E	-gi-	[1e	-ti-	2c	.	2g	a-
.	.	.	.	2B	-gi-	4a	-gi-
.	.	.	.	.	.	4bni	.
=28	=28	=28	=28	=28	=28	=28	=28
2.AA	-mus	0.e]	.	2A	-mus	1cc	-mus
.	.	.	.	4G	.	.	.
4BB	.	.	.	4F	.	.	.
2C	.	.	.	2E	.	2a	.
2D	.	.	.	2D	.	1a	ti-
1E	.	.	.	1C	.	.	.
.	.	.	.	.	.	2g	.
=29	=29	=29	=29	=29	=29	=29	=29
2.F	ti-	[0.A	-as	2r	.	2.a	.
.	.	.	.	2D	ti-	.	.
4E	.	.	.	.	.	4g	.
2C	.	.	.	2E	.	2e	.
1D	.	.	.	2D	.	1f	.
.	.	.	.	2.F	.	.	.
4C	.	.	.	.	.	4e	.
4BB	.	.	.	4E	.	4d	.
=30	=30	=30	=30	=30	=30	=30	=30
2.AA	.	0.A]	.	2E	.	2c	.
.	.	.	.	1A	.	2f	.
4BB	.	.	.	.	.	.	.
2C	.	.	.	.	.	2e	.
1D	.	.	.	4G	.	2d	.
.	.	.	.	4F	.	.	.
.	.	.	.	1E	-bi	1e	-bi
2C#i	.	.	.	.	.	.	.
=31	=31	=31	=31	=31	=31	=31	=31
[0.D	-bi	0A	prop-	2r	.	1.d	prop-
.	.	.	.	1F	prop-	.	.
.	.	.	.	2G	.	2e	.
.	.	[1d	.	2A	.	2f	.
.	.	.	.	2B-i	.	2g	.
=32	=32	=32	=32	=32	=32	=32	=32
1D]	.	1d]	.	2A	.	2a	.
.	.	.	.	2.d	-ter	2b-i	.
0F	prop-	0A	.	.	.	2a	-ter
.	.	.	.	4c	.	.	.
.	.	.	.	2.f	ma-	1cc	ma-
.	.	.	.	4e	.	.	.
.	.	.	.	2c	.	4b-i	.
.	.	.	.	.	.	4a	.
=33	=33	=33	=33	=33	=33	=33	=33
0BB-	-ter	0B-i	-ter	2B-	.	2g	.
.	.	.	.	2.d	.	2.f	.
.	.	.	.	4e	.	4e	.
.	.	.	.	2.f	.	2d	.
[1F	ma-	[1A	ma-	.	.	2c	.
.	.	.	.	4e	.	.	.
.	.	.	.	2d	.	[2a	.
=34	=34	=34	=34	=34	=34	=34	=34
1F]	.	1A]	.	2c	.	2a]	.
.	.	.	.	2d	.	4g	.
.	.	.	.	.	.	4f	.
0C	-gnam	0G	-gnam	0c	-gnam	4g	.
.	.	.	.	.	.	4f	.
.	.	.	.	.	.	4e	.
.	.	.	.	.	.	4d	.
.	.	.	.	.	.	2.e	.
.	.	.	.	.	.	4d	.
=35	=35	=35	=35	=35	=35	=35	=35
0.r	.	[0.F	.	1.A	glo-	1f	-gnam
.	.	.	.	.	.	1r	.
.	.	.	.	2F	.	.	.
.	.	.	.	2.A	.	1c	glo-
.	.	.	.	4B	.	.	.
=36	=36	=36	=36	=36	=36	=36	=36
0.r	.	0.F]	.	2c	.	1f	.
.	.	.	.	2d	.	.	.
.	.	.	.	2c	.	2a	-ri-
.	.	.	.	1f	.	2b	.
.	.	.	.	.	.	[1cc	-am
.	.	.	.	2e	.	.	.
=37	=37	=37	=37	=37	=37	=37	=37
0.r	.	[0.F	glo-	2c	.	2cc]	.
.	.	.	.	2d	-ri-	1f	.
.	.	.	.	1c	-am,-	.	.
.	.	.	.	.	.	2e	.
.	.	.	.	2r	.	1d	.
.	.	.	.	[2f	-glo-	.	.
=38	=38	=38	=38	=38	=38	=38	=38
1.F	glo-	0.F]	.	4f]	.	1c	.
.	.	.	.	4e	.	.	.
.	.	.	.	4d	.	.	.
.	.	.	.	4c	.	.	.
.	.	.	.	2d	.	1.f	tu-
2E	.	.	.	1c	.	.	.
1D	-ri-	.	.	.	.	.	.
.	.	.	.	2B	-ri-	2e	.
=39	=39	=39	=39	=39	=39	=39	=39
1C	-am	[0.G	-ri-	1c	-am	2e	.
.	.	.	.	.	.	1g	.
1BB	tu-	.	.	1d	tu-	.	.
.	.	.	.	.	.	2f	.
2C	.	.	.	[1g	.	2e	.
2D	.	.	.	.	.	2d	.
=40	=40	=40	=40	=40	=40	=40	=40
1E	.	0.G]	.	1g]	.	2c	.
.	.	.	.	.	.	2B	.
0C	.	.	.	1e	.	2c	.
.	.	.	.	.	.	2d	.
.	.	.	.	1c	.	1e	-am,
=41	=41	=41	=41	=41	=41	=41	=41
1.D	-am,	0F	-am	2A	.	2r	.
.	.	.	.	1d	.	2.A	tu-
.	.	.	.	.	.	4B	.
2.AA	-tu-	.	.	4c	.	2.c	.
.	.	.	.	4B	.	.	.
.	.	[1E	tu-	1A	.	.	.
4BB	.	.	.	.	.	4d	.
[2C	.	.	.	.	.	[2e	.
=42	=42	=42	=42	=42	=42	=42	=42
4C]	.	0.E]	.	2B	.	4e]	.
4D	.	.	.	.	.	4f	.
2.E	.	.	.	2.c	.	2.g	.
4D	.	.	.	4B	.	4f	.
4C	.	.	.	4A	.	4e	.
4BB	.	.	.	4G	.	4d	.
1AA	.	.	.	1A	.	2.c#i	.
.	.	.	.	.	.	4B	.
=43	=43	=43	=43	=43	=43	=43	=43
0F	-am.	[0.D	-am.	0A	-am,	1d	-am.
.	.	.	.	.	.	1r	.
2F	Do-	.	.	1A	.	1r	.
2G	.	.	.	.	.	.	.
=44	=44	=44	=44	=44	=44	=44	=44
1A	.	0.D]	.	0.r	.	0.d	Do-
1B-i	.	.	.	.	.	.	.
1A	.	.	.	.	.	.	.
=45	=45	=45	=45	=45	=45	=45	=45
1A	-mi-	0.r	.	0.r	.	2c	-mi-
.	.	.	.	.	.	2e	.
1D	.	.	.	.	.	2d	.
.	.	.	.	.	.	2f	.
2C	.	.	.	.	.	1e	-ne
2E	.	.	.	.	.	.	.
=46	=46	=46	=46	=46	=46	=46	=46
2D	.	0.r	.	2r	.	1A	.
2F	.	.	.	2A	Do-	.	.
1E	-ne	.	.	2G	-mi-	2r	.
.	.	.	.	2B	.	1.e	de-
1AA	.	.	.	2A	.	.	.
.	.	.	.	2c	.	.	.
=47	=47	=47	=47	=47	=47	=47	=47
2E	de-	0.r	.	1B	-ne	1.g	-us,
2F	.	.	.	.	.	.	.
1.G	-us,	.	.	1E	.	.	.
.	.	.	.	.	.	4f	.
.	.	.	.	.	.	4e	.
.	.	.	.	2B	de-	[1d	.
2F	.	.	.	2c	.	.	.
=48	=48	=48	=48	=48	=48	=48	=48
1.D	.	0.r	.	1.d	-us,	2d]	.
.	.	.	.	.	.	1f	rex
1F	rex	.	.	2c	.	4e	.
.	.	.	.	.	.	4d	.
.	.	.	.	1A	.	[1c	.
4E	.	.	.	.	.	.	.
4D	.	.	.	.	.	.	.
=49	=49	=49	=49	=49	=49	=49	=49
1C	.	0.r	.	2.c	rex	2c]	.
.	.	.	.	.	.	2.e	ce-
.	.	.	.	4B	.	.	.
!LO:TX:Z=12:t=MS&colon; 2 minims	!	!	!	!	!	!	!
2.E	ce-	.	.	1G	.	.	.
.	.	.	.	.	.	4f	.
.	.	.	.	.	.	2g	.
4F	.	.	.	.	.	.	.
2G	.	.	.	2.B	ce-	2.d	-les-
[2D	-les-	.	.	.	.	.	.
.	.	.	.	4c	.	4e	.
=50	=50	=50	=50	=50	=50	=50	=50
4D]	.	0.r	.	2d	.	4f	.
4E	.	.	.	.	.	4g	.
4F	.	.	.	2.A	-les-	2.a	.
4G	.	.	.	.	.	.	.
2.A	.	.	.	.	.	.	.
.	.	.	.	4B	.	4g	.
.	.	.	.	4c	.	2e	.
4G	.	.	.	4d	.	.	.
2E	.	.	.	2.e	.	2.g	.
[2G	.	.	.	.	.	.	.
.	.	.	.	4d	.	4f	.
=51	=51	=51	=51	=51	=51	=51	=51
4G]	.	0.r	.	4B	.	2d	.
4F	.	.	.	4c	.	.	.
2D	.	.	.	2.d	.	2.f	.
2.F	.	.	.	.	.	.	.
.	.	.	.	4c	.	4e	.
.	.	.	.	4A	.	2c	.
4E	.	.	.	4B	.	.	.
2C	.	.	.	2.c	.	2.e	.
[2E	.	.	.	.	.	.	.
.	.	.	.	4B	.	4d	.
=52	=52	=52	=52	=52	=52	=52	=52
2E]	.	0.r	.	4G	.	4B	.
.	.	.	.	4A	.	4c	.
2D	.	.	.	4G	.	1.d	-tis,
.	.	.	.	4F	.	.	.
1.F	-tis,	.	.	1A	-tis,	.	.
.	.	.	.	2D	de-	1d	de-
2BB-	de-	.	.	[2D	-us	.	.
=53	=53	=53	=53	=53	=53	=53	=53
1.BB-i	-us	0.r	.	2D]	.	1.d	-us
.	.	.	.	2F	.	.	.
.	.	.	.	2G	.	.	.
1F	pa-	.	.	2.A	.	4c	.
.	.	.	.	.	.	4B	.
.	.	.	.	.	.	[1A	.
.	.	.	.	4B	.	.	.
4E	.	.	.	4c	.	.	.
4D	.	.	.	4d	.	.	.
=54	=54	=54	=54	=54	=54	=54	=54
2C	.	0.r	.	2e	.	2A]	.
2D	.	.	.	2A	pa-	2d	pa-
2E	.	.	.	2G	.	2c	.
2F	.	.	.	2c	.	2f	.
2G	.	.	.	2B	.	2e	.
[2A	.	.	.	[2e	.	[2a	.
=55	=55	=55	=55	=55	=55	=55	=55
2A]	.	0.r	.	2e]	.	4a]	.
.	.	.	.	.	.	4g	.
2.A	.	.	.	2.c	.	2f	.
.	.	.	.	.	.	2e	.
4G	.	.	.	4B	.	.	.
2F	.	.	.	2A	.	2d	.
2E	.	.	.	2G	.	2c	.
2D	.	.	.	[2F	.	[2B	.
=56	=56	=56	=56	=56	=56	=56	=56
1AA	.	0.r	.	2F]	.	4B]	.
.	.	.	.	.	.	4A	.
.	.	.	.	2E	.	2A	.
2BB	.	.	.	2D	.	2G	.
2AA	.	.	.	2C	.	1A	.
1BB	.	.	.	2.D	.	.	.
.	.	.	.	.	.	2G#i	.
.	.	.	.	4E	.	.	.
=57	=57	=57	=57	=57	=57	=57	=57
0AA	-ter	0.r	.	2F	-ter	0A	-ter
.	.	.	.	1E	.	.	.
.	.	.	.	2c	om-	.	.
[1D	om-	.	.	2.d	-ni-	[1f	.
.	.	.	.	4c	.	.	.
=58	=58	=58	=58	=58	=58	=58	=58
1D]	.	0.r	.	2B	.	1f]	.
.	.	.	.	1A	.	.	.
0C	-ni-	.	.	.	.	0e	.
.	.	.	.	4G	-po-	.	.
.	.	.	.	4F	.	.	.
.	.	.	.	1E	-tens,	.	.
=59	=59	=59	=59	=59	=59	=59	=59
0D	-po-	0.r	.	2r	.	1.A	om-
.	.	.	.	2D	om-	.	.
.	.	.	.	2F	.	.	.
.	.	.	.	2G	.	2.d	.
1D	-tens,	.	.	1A	.	.	.
.	.	.	.	.	.	4e	.
.	.	.	.	.	.	[2f	.
=60	=60	=60	=60	=60	=60	=60	=60
1r	.	0.r	.	1D	.	4f]	.
.	.	.	.	.	.	4g	.
.	.	.	.	.	.	1a	.
0AA	om-	.	.	0C	.	.	.
.	.	.	.	.	.	4g	.
.	.	.	.	.	.	4f	.
.	.	.	.	.	.	1e	.
=61	=61	=61	=61	=61	=61	=61	=61
1BB	-ni-	0.r	.	0D	-ni-	2d	.
.	.	.	.	.	.	2.d	-ni-
1GG	.	.	.	.	.	.	.
.	.	.	.	.	.	4c	.
.	.	.	.	.	.	2B	.
1D	.	.	.	[1F	.	2A	.
.	.	.	.	.	.	[2a	-po-
=62	=62	=62	=62	=62	=62	=62	=62
2AA	-po-	0.r	.	1F]	.	2a]	.
2D	.	.	.	.	.	4g	.
.	.	.	.	.	.	4f	.
4E	.	.	.	0E	-po-	4g	.
4D	.	.	.	.	.	4f	.
4C	.	.	.	.	.	4e	.
4BB	.	.	.	.	.	4d	.
1AA	-tens.	.	.	.	.	2.c#i	.
.	.	.	.	.	.	4B	.
=63	=63	=63	=63	=63	=63	=63	=63
[0.D	Do-	[0.f	Do-	1D	-tens.	0d	-tens.
.	.	.	.	0A	Do-	.	.
.	.	.	.	.	.	1r	.
=64	=64	=64	=64	=64	=64	=64	=64
0.D]	.	0.f]	.	1A	-mi-	0.d	Do-
.	.	.	.	2B-i	.	.	.
.	.	.	.	2A	.	.	.
.	.	.	.	2F	.	.	.
.	.	.	.	2G	.	.	.
=65	=65	=65	=65	=65	=65	=65	=65
0AA	-mi-	[0.e	-mi-	1A	.	0c	-mi-
.	.	.	.	1A	-ne	.	.
1AA	-ne	.	.	2r	.	2.c	-ne
.	.	.	.	[2A	fi-	.	.
.	.	.	.	.	.	4d	.
=66	=66	=66	=66	=66	=66	=66	=66
2r	.	0.e_	.	2A]	.	4e	.
.	.	.	.	.	.	4f	.
2.E	fi-	.	.	2B	.	2.g	.
.	.	.	.	2.c	.	.	.
4F	.	.	.	.	.	4a	.
2G	.	.	.	.	.	2b	.
.	.	.	.	4B	.	.	.
2A	.	.	.	2A	.	2.cc	fi-
2B	.	.	.	2G	.	.	.
.	.	.	.	.	.	4b	.
=67	=67	=67	=67	=67	=67	=67	=67
2.c	.	0.e_	.	2A	-li	2a	.
.	.	.	.	2E	.	2g	.
4B	.	.	.	.	.	.	.
2A	.	.	.	2r	.	2a	.
2G	.	.	.	2B	fi-	1e	.
2A	.	.	.	2c	.	.	.
[2E	.	.	.	2B	.	[2g	.
=68	=68	=68	=68	=68	=68	=68	=68
4E]	.	0.e]	.	2.e	.	4g]	.
4F	.	.	.	.	.	4a	.
2.G	.	.	.	.	.	2b	.
.	.	.	.	4d	.	.	.
.	.	.	.	2B	.	2g	.
4F	.	.	.	.	.	.	.
4E	.	.	.	2G	.	2.cc	.
4D	.	.	.	.	.	.	.
1C	.	.	.	1c	.	.	.
.	.	.	.	.	.	4b	.
.	.	.	.	.	.	4a	.
.	.	.	.	.	.	4g	.
=69	=69	=69	=69	=69	=69	=69	=69
0D	.	[0.d	-ne	1A	.	2f	.
.	.	.	.	.	.	2g	.
.	.	.	.	2F	.	0a	-li,
.	.	.	.	2G	.	.	.
1D	-li,	.	.	1A	.	.	.
=70	=70	=70	=70	=70	=70	=70	=70
0.F	do-	1d]	.	0D	.	1a	do-
.	.	0d	fi-	.	.	1a	-mi-
.	.	.	.	1D	-li	1a	-ne
=71	=71	=71	=71	=71	=71	=71	=71
0G	-mi-	0B	.	1r	.	1.d	fi-
.	.	.	.	1.d	do-	.	.
.	.	.	.	.	.	2e	.
2F	-ne	[1A	.	.	.	2f	.
2E	.	.	.	2c	-mi-	2g	.
=72	=72	=72	=72	=72	=72	=72	=72
1D	fi-	1A]	.	1d	-ne	1.a	.
1E	.	0e	.	1B	fi-	.	.
.	.	.	.	.	.	1g	.
1C	.	.	.	1c	.	.	.
.	.	.	.	.	.	4f	.
.	.	.	.	.	.	4e	.
=73	=73	=73	=73	=73	=73	=73	=73
1D	-li	0d	.	1A	.	1f	.
1r	.	.	.	1G	.	2g	.
.	.	.	.	.	.	2b-i	.
1r	.	[1c	.	1A	.	2a	.
.	.	.	.	.	.	[2cc	.
=74	=74	=74	=74	=74	=74	=74	=74
0.r	.	1c]	.	1F	.	2cc]	.
.	.	.	.	.	.	1a	.
.	.	0d	.	0B-i	.	.	.
.	.	.	.	.	.	4g	.
.	.	.	.	.	.	4f	.
.	.	.	.	.	.	1g	.
=75	=75	=75	=75	=75	=75	=75	=75
0.r	.	0e	-li	0A	-li	1a	-li
.	.	.	.	.	.	2r	.
.	.	.	.	.	.	1a	u-
.	.	[1d	.	1D	.	.	.
.	.	.	.	.	.	2g	-ni-
=76	=76	=76	=76	=76	=76	=76	=76
1r	.	1d]	.	1.B-	u-	2f	-ge-
.	.	.	.	.	.	2e	.
0D	u-	0f	u-	.	.	1.d	.
.	.	.	.	2A	-ni-	.	.
.	.	.	.	2F	-ge-	.	.
.	.	.	.	2G	.	2c	.
=77	=77	=77	=77	=77	=77	=77	=77
[0.AA	-ni-	[0.e	-ni-	0A	.	0c	.
.	.	.	.	1A	-ni-	1c	-ni-
=78	=78	=78	=78	=78	=78	=78	=78
0.AA]	.	0.e]	.	0A	-te,	[0.c	-te,
.	.	.	.	[1E	Je-	.	.
=79	=79	=79	=79	=79	=79	=79	=79
1.AA	-ge-	[0.A	-ge-	1E]	.	1c]	.
.	.	.	.	2C	.	0e	Je-
2BB	.	.	.	2D	.	.	.
1C	-ni-	.	.	1E	.	.	.
=80	=80	=80	=80	=80	=80	=80	=80
0D	-te,	0.A]	.	0F	-su	0d	-su
[1F	.	.	.	[1D	Chri-	[1a	Chri-
=81	=81	=81	=81	=81	=81	=81	=81
1F]	.	[0.d	-ni-	1D]	.	1a]	.
0G	.	.	.	2.B-i	.	1g	.
.	.	.	.	4c	.	.	.
.	.	.	.	2d	.	[1b-	.
.	.	.	.	2e	.	.	.
=82	=82	=82	=82	=82	=82	=82	=82
1.D	Je-	1d]	.	1.f	.	2b-]	.
.	.	.	.	.	.	2a	.
.	.	0A	-te,	.	.	1.a	.
2C	.	.	.	4e	.	.	.
.	.	.	.	4d	.	.	.
2AA	.	.	.	[1c	.	.	.
2BBni	.	.	.	.	.	4g	.
.	.	.	.	.	.	4f	.
=83	=83	=83	=83	=83	=83	=83	=83
0C	.	0G	Je-	2c]	.	2.e	.
.	.	.	.	4B-i	.	.	.
.	.	.	.	4A	.	4d	.
.	.	.	.	2G	.	1e	.
.	.	.	.	2A	.	.	.
[1BB-i	-su	[1D	-su	2B-i	.	2f	.
.	.	.	.	4A	.	2e	.
.	.	.	.	4G	.	.	.
=84	=84	=84	=84	=84	=84	=84	=84
1BB-]	.	1D]	.	2F	.	1d	.
.	.	.	.	2G	.	.	.
0AA	Chri-	0E	Chri-	1A	-ste,	1.c#i	.
.	.	.	.	2r	.	.	.
.	.	.	.	2A	Chri-	4B	.
.	.	.	.	.	.	4c#i	.
=85	=85	=85	=85	=85	=85	=85	=85
1BB-i	.	[0.Dl	-ste.	2G	.	[0.dl	-ste.
.	.	.	.	2F	.	.	.
0GG	.	.	.	2G	.	.	.
.	.	.	.	2A	.	.	.
.	.	.	.	1B-i	.	.	.
=86	=86	=86	=86	=86	=86	=86	=86
0.Dl	-ste.	0.D]	.	0.Al	-ste.	0.d]	.
!!LO:LB:i:g=z
=87||	=87||	=87||	=87||	=87||	=87||	=87||	=87||
*>B	*>B	*>B	*>B	*>B	*>B	*>B	*>B
*clefF4	*	*clefGv2	*	*clefGv2	*	*clefG2	*
*k[]	*	*k[]	*	*k[]	*	*k[]	*
*M2/1	*	*M2/1	*	*M2/1	*	*M2/1	*
*met(O2)	*	*met(O2)	*	*met(O2)	*	*met(O2)	*
*MM400	*	*MM400	*	*MM400	*	*MM400	*
!!section: Domine deus agnus dei
!!!OMD: Domine deus agnus dei
!	!	!LO:TX:Z=8:t=T&colon; threefold aug. (probably originally under Cut-C with verbal canon)	!	!	!	!	!
[0AA	Do-	0r	.	0r	.	0r	.
=88.	=88.	=88.	=88.	=88.	=88.	=88.	=88.
1AA]	.	0r	.	0r	.	0r	.
1BB	-mi-	.	.	.	.	.	.
=89.	=89.	=89.	=89.	=89.	=89.	=89.	=89.
0C	-ne	0r	.	0r	.	0r	.
=90	=90	=90	=90	=90	=90	=90	=90
1D	de-	0r	.	0r	.	[0A	Do-
[1F	.	.	.	.	.	.	.
=91.	=91.	=91.	=91.	=91.	=91.	=91.	=91.
2F]	.	0r	.	0r	.	1A]	.
2E	.	.	.	.	.	.	.
1D	.	.	.	.	.	1B	-mi-
=92.	=92.	=92.	=92.	=92.	=92.	=92.	=92.
1.E	.	0r	.	0r	.	1.c	-ne
2D	.	.	.	.	.	2d	.
=93	=93	=93	=93	=93	=93	=93	=93
1C	.	0r	.	[0A	Do-	1e	.
[1D	.	.	.	.	.	[1f	de-
=94.	=94.	=94.	=94.	=94.	=94.	=94.	=94.
2D]	.	0r	.	1A]	.	2f]	.
2C	.	.	.	.	.	2e	.
1BB	.	.	.	1B	-mi-	1d	.
=95.	=95.	=95.	=95.	=95.	=95.	=95.	=95.
0AA	-us,	0r	.	1.c	-ne	2f	.
.	.	.	.	.	.	1e	.
.	.	.	.	2d	.	2d	.
=96	=96	=96	=96	=96	=96	=96	=96
1r	.	0r	.	1e	.	1c	.
1D	a-	.	.	[1f	de-	[1d	.
=97.	=97.	=97.	=97.	=97.	=97.	=97.	=97.
1F	.	0r	.	2f]	.	2d]	.
.	.	.	.	2e	.	2c	.
1G	.	.	.	1d	.	1B	.
=98.	=98.	=98.	=98.	=98.	=98.	=98.	=98.
2A	.	0r	.	2f	.	0A	-us,
1c	.	.	.	1e	.	.	.
2B	.	.	.	2d	.	.	.
=99	=99	=99	=99	=99	=99	=99	=99
1A	.	0r	.	1c	-us,	0r	.
1F	.	.	.	[1d	a-	.	.
=100.	=100.	=100.	=100.	=100.	=100.	=100.	=100.
0G	-gnus	0r	.	2d]	.	0d	a-
.	.	.	.	2c	.	.	.
.	.	.	.	1B	.	.	.
=101.	=101.	=101.	=101.	=101.	=101.	=101.	=101.
1r	.	0r	.	0A	-gnus	0c	-gnus
[1A	de-	.	.	.	.	.	.
=102	=102	=102	=102	=102	=102	=102	=102
1A]	.	0r	.	2.D	de-	1.d	de-
.	.	.	.	4E	.	.	.
[1D	.	.	.	2F	.	.	.
.	.	.	.	2G	.	2e	.
=103.	=103.	=103.	=103.	=103.	=103.	=103.	=103.
1D]	.	0r	.	2A	.	2.f	.
.	.	.	.	2B	.	.	.
.	.	.	.	.	.	4g	.
2E	.	.	.	2c	.	2e	.
2D	.	.	.	[2d	.	[2a	.
=104.	=104.	=104.	=104.	=104.	=104.	=104.	=104.
2F	.	0r	.	2d]	.	2a]	.
2G	.	.	.	2B	.	4g	.
.	.	.	.	.	.	4f	.
1A	.	.	.	1c#i	.	1e	-i,
=105	=105	=105	=105	=105	=105	=105	=105
1.D	.	[0A	fi-	0d	-i,	1r	.
.	.	.	.	.	.	[1d	fi-
2E	.	.	.	.	.	.	.
=106.	=106.	=106.	=106.	=106.	=106.	=106.	=106.
2.F	.	1A]	.	0r	.	1d]	.
4G	.	.	.	.	.	.	.
2E	.	[1c	-li-	.	.	1e	-li-
[2A	.	.	.	.	.	.	.
=107.	=107.	=107.	=107.	=107.	=107.	=107.	=107.
2A]	.	0c]	.	0r	.	2A	.
4G	.	.	.	.	.	1e	.
4F	.	.	.	.	.	.	.
1E	-i,	.	.	.	.	.	.
.	.	.	.	.	.	4d	.
.	.	.	.	.	.	4c	.
=108	=108	=108	=108	=108	=108	=108	=108
1r	.	[0d	-us	1.D	fi-	1B	-us
[1D	fi-	.	.	.	.	1A	.
.	.	.	.	2E	-li-	.	.
=109.	=109.	=109.	=109.	=109.	=109.	=109.	=109.
1D]	.	1d]	.	2.F	-us	2r	.
.	.	.	.	.	.	2.a	pa-
.	.	.	.	4G	.	.	.
1AA	-li-	[1c	pa-	2E	.	.	.
.	.	.	.	.	.	4g	.
.	.	.	.	[2A	pa-	2f	.
=110.	=110.	=110.	=110.	=110.	=110.	=110.	=110.
0AA	-us	0c]	.	2A]	.	2e	.
.	.	.	.	4G	.	2d	.
.	.	.	.	4F	.	.	.
.	.	.	.	2E	.	1e	.
.	.	.	.	2A	.	.	.
=111	=111	=111	=111	=111	=111	=111	=111
0BB-i	pa-	1.d	.	2G	.	0d	.
.	.	.	.	1F	.	.	.
.	.	[2f	.	4E	.	.	.
.	.	.	.	4D	.	.	.
=112.	=112.	=112.	=112.	=112.	=112.	=112.	=112.
0AA	.	1f]	.	0C	.	0a	.
.	.	[1e	.	.	.	.	.
=113.	=113.	=113.	=113.	=113.	=113.	=113.	=113.
0GG	.	2e]	.	0G	.	0b-i	.
.	.	1.d	.	.	.	.	.
=114	=114	=114	=114	=114	=114	=114	=114
0D	-tris.	[0A	-tris.	1.F	.	1a	-tris.
.	.	.	.	.	.	1d	.
.	.	.	.	2D	.	.	.
=115.	=115.	=115.	=115.	=115.	=115.	=115.	=115.
0F	Qui	1A]	.	1D	-tris.	1r	.
.	.	[1c	Qui	1r	.	1a	Qui
=116.	=116.	=116.	=116.	=116.	=116.	=116.	=116.
0E	tol-	0c]	.	0G	Qui	2g	.
.	.	.	.	.	.	1g	tol-
.	.	.	.	.	.	4f	.
.	.	.	.	.	.	4e	.
=117	=117	=117	=117	=117	=117	=117	=117
0D	-lis	[0d	tol-	0A	tol-	1f	.
.	.	.	.	.	.	1f	-lis
=118.	=118.	=118.	=118.	=118.	=118.	=118.	=118.
0G	pec-	1d]	.	0B	.	[0g	.
.	.	[1e	-lis	.	.	.	.
=119.	=119.	=119.	=119.	=119.	=119.	=119.	=119.
0C	-ca-	0e]	.	0c	-lis	1g]	.
.	.	.	.	.	.	1a	pec-
=120	=120	=120	=120	=120	=120	=120	=120
0BB-i	-ta	[0d	pec-	1r	.	0b-i	-ca-
.	.	.	.	[1f	pec-	.	.
=121.	=121.	=121.	=121.	=121.	=121.	=121.	=121.
[0F	mun-	1d]	.	0f]	.	0a	-ta
.	.	[1c	-ca-	.	.	.	.
=122.	=122.	=122.	=122.	=122.	=122.	=122.	=122.
0F]	.	0c]	.	0f	-ca-	0a	mun-
=123	=123	=123	=123	=123	=123	=123	=123
0G	-di,	[0B-i	-ta	[0d	-ta	[0g	.
=124.	=124.	=124.	=124.	=124.	=124.	=124.	=124.
[0G	mi-	0B-_	.	0d]	.	0g]	.
=125.	=125.	=125.	=125.	=125.	=125.	=125.	=125.
0G]	.	0B-]	.	1.d	mun-	0g	-di,
.	.	.	.	2e	.	.	.
=126	=126	=126	=126	=126	=126	=126	=126
0D	-se-	[0A	mun-	1d	-di,	1f	mi-
.	.	.	.	1f	mi-	[1a	.
=127.	=127.	=127.	=127.	=127.	=127.	=127.	=127.
1C	-re-	0A_	.	1e	-se-	2a]	.
.	.	.	.	.	.	2g	.
1D	-re	.	.	[1d	-re-	1f	-se-
=128.	=128.	=128.	=128.	=128.	=128.	=128.	=128.
0AA	no-	0A]	.	1d]	.	1.e	-re-
.	.	.	.	1c#i	-re	.	.
.	.	.	.	.	.	4d	-re
.	.	.	.	.	.	4c	.
=129	=129	=129	=129	=129	=129	=129	=129
[0GG	-bis.	[0D	-di,	0d	no-	[0B	no-
=130.	=130.	=130.	=130.	=130.	=130.	=130.	=130.
0GG]	.	0D_	.	0G	-bis.	0B]	.
=131.	=131.	=131.	=131.	=131.	=131.	=131.	=131.
1.D	Qui	0D]	.	1.F	Qui	0A	-bis.
2E	.	.	.	2G	.	.	.
=132	=132	=132	=132	=132	=132	=132	=132
1F	.	[0d	Qui	1A	.	0r	.
[1G	tol-	.	.	[1B-i	tol-	.	.
=133.	=133.	=133.	=133.	=133.	=133.	=133.	=133.
2G]	.	1d]	.	2B-]	.	0r	.
2F	.	.	.	2A	.	.	.
2E	-lis	[1e	tol-	2G	-lis	.	.
2D	.	.	.	2F	.	.	.
=134.	=134.	=134.	=134.	=134.	=134.	=134.	=134.
1.C#i	pec-	0e]	.	1.E	pec-	0r	.
2BB	.	.	.	2D	.	.	.
=135	=135	=135	=135	=135	=135	=135	=135
0D	-ca-	[0A	-lis	0F	-ca-	0d	Qui
=136.	=136.	=136.	=136.	=136.	=136.	=136.	=136.
[0AA	-ta	0A_	.	[0E	-ta	1c	tol-
.	.	.	.	.	.	1c	-lis
=137.	=137.	=137.	=137.	=137.	=137.	=137.	=137.
0AA]	.	0A]	.	0E]	.	1.c	pec-
.	.	.	.	.	.	4d	.
.	.	.	.	.	.	4e	.
=138	=138	=138	=138	=138	=138	=138	=138
*	*	*	*	*M2/1	*	*	*
*	*	*	*	*met(3)	*	*	*
0r	.	[0A	pec-	3%4D	mun-	1f	-ca-
.	.	.	.	.	.	1e	.
.	.	.	.	3%2C	.	.	.
=139.	=139.	=139.	=139.	=139.	=139.	=139.	=139.
[0D	mun-	1A]	.	3%2D	.	2d	-ta
.	.	.	.	.	.	1d	mun-
.	.	.	.	3%2F	.	.	.
.	.	[1d	-ca-	.	.	.	.
.	.	.	.	3%2G	.	.	.
.	.	.	.	.	.	4c	.
.	.	.	.	.	.	4B	.
=140.	=140.	=140.	=140.	=140.	=140.	=140.	=140.
1D]	.	0d]	.	3%2A	.	[0A	-di,
.	.	.	.	3%2F	.	.	.
[1D	-di,	.	.	.	.	.	.
.	.	.	.	3D	.	.	.
.	.	.	.	3E	.	.	.
=141	=141	=141	=141	=141	=141	=141	=141
1D]	.	[0A	-ta	3F	.	1A]	.
.	.	.	.	3D	.	.	.
.	.	.	.	3F	.	.	.
1AA	sus-	.	.	3G	.	[1a	sus-
.	.	.	.	3%2E	.	.	.
=142.	=142.	=142.	=142.	=142.	=142.	=142.	=142.
0D	-ci-	1A]	.	3%4F	-di,	1a]	.
.	.	[1B-i	mun-	.	.	1f	-ci-
.	.	.	.	[3%2D	.	.	.
=143.	=143.	=143.	=143.	=143.	=143.	=143.	=143.
1BB-i	-pe	0B-]	.	3%2D]	.	0d	-pe
.	.	.	.	3%2B-	sus-	.	.
[1D	.	.	.	.	.	.	.
.	.	.	.	[3%2d	.	.	.
=144	=144	=144	=144	=144	=144	=144	=144
1D]	.	[0A	-di,	3%2d]	.	1f	de-
.	.	.	.	3%2A	-ci-	.	.
1AA	de-	.	.	.	.	[1a	.
.	.	.	.	[3%2c	-pe	.	.
=145.	=145.	=145.	=145.	=145.	=145.	=145.	=145.
0C	-pre-	1A]	.	3%2c]	.	1a]	.
.	.	.	.	3%2c	de-	.	.
.	.	[1G	mun-	.	.	1e	-pre-
.	.	.	.	3%2G	-pre-	.	.
=146.	=146.	=146.	=146.	=146.	=146.	=146.	=146.
1GG	-ca-	0G]	.	3%2.B-i	-ca-	0g	-ca-
[1BB-	.	.	.	3c	.	.	.
.	.	.	.	3d	.	.	.
.	.	.	.	3e	.	.	.
=147	=147	=147	=147	=147	=147	=147	=147
0BB-]	.	[0F	.	3%4f	.	1d	.
.	.	.	.	.	.	[1f	.
.	.	.	.	3%2B-i	-ti-	.	.
=148.	=148.	=148.	=148.	=148.	=148.	=148.	=148.
0BB-i	-ti-	0F_	.	3%2B-	-o-	2f]	.
.	.	.	.	.	.	2B-	.
.	.	.	.	3%4d	-nem,	.	.
.	.	.	.	.	.	1B-i	-ti-
=149.	=149.	=149.	=149.	=149.	=149.	=149.	=149.
1BB-i	-o-	0F]	.	3%2.D	de-	0B-i	-o-
[1BB-i	-nem,	.	.	3D	-pre-	.	.
.	.	.	.	3%2D	-ca-	.	.
=150	=150	=150	=150	=150	=150	=150	=150
1BB-]	.	[0F	-di,	3%2D	-ti-	1B-	-nem
.	.	.	.	3%2.B-i	-o-	.	.
2BB-i	de-	.	.	.	.	[1d	nos-
2C	-pre-	.	.	.	.	.	.
.	.	.	.	3A	.	.	.
=151.	=151.	=151.	=151.	=151.	=151.	=151.	=151.
1.D	-ca-	0F_	.	3%2A	-nem	1d]	.
.	.	.	.	3%2.d	nos-	.	.
.	.	.	.	.	.	[1a	.
2D	-ti-	.	.	.	.	.	.
.	.	.	.	3c	.	.	.
=152.	=152.	=152.	=152.	=152.	=152.	=152.	=152.
1AA	-o-	0F]	.	3%2c	.	2a]	.
.	.	.	.	.	.	4g	.
.	.	.	.	3%2A	.	.	.
.	.	.	.	.	.	4a	.
1D	-nem	.	.	.	.	4b-i	.
.	.	.	.	.	.	4a	.
.	.	.	.	3%2B-i	.	.	.
.	.	.	.	.	.	4g	.
.	.	.	.	.	.	4f	.
=153	=153	=153	=153	=153	=153	=153	=153
1C	nos-	[0G	nos-	3%2c	.	1e	.
.	.	.	.	3%2.g	.	.	.
1BB	.	.	.	.	.	1d	.
.	.	.	.	3f	.	.	.
=154.	=154.	=154.	=154.	=154.	=154.	=154.	=154.
1C	.	0G_	.	3%2e	.	1c	.
.	.	.	.	3%4d	.	.	.
1GG	.	.	.	.	.	1B	.
=155.	=155.	=155.	=155.	=155.	=155.	=155.	=155.
0C	.	0G]	.	3%2c	-tram,	2c	.
.	.	.	.	.	.	2d	.
.	.	.	.	3%2r	.	.	.
.	.	.	.	.	.	1e	.
.	.	.	.	3%2c	de-	.	.
=156	=156	=156	=156	=156	=156	=156	=156
1D	-tram,-	[0F	.	3%2A	-pre-	2d	.
.	.	.	.	.	.	1a	.
.	.	.	.	3%2d	-ca-	.	.
1r	.	.	.	.	.	.	.
.	.	.	.	3%2c	-ti-	.	.
.	.	.	.	.	.	2g	.
=157.	=157.	=157.	=157.	=157.	=157.	=157.	=157.
1D	-nos-	1F]	.	3%4.A	-o-	2f	.
.	.	.	.	.	.	4e	.
.	.	.	.	.	.	4d	.
2AA	.	[1E	.	.	.	2c	.
[2C	.	.	.	.	.	2e	.
=158.	=158.	=158.	=158.	=158.	=158.	=158.	=158.
4C]	.	0E]	.	3%2A	-nem	2A	.
4D	.	.	.	.	.	.	.
2BB	.	.	.	.	.	1d	.
.	.	.	.	3%4A	nos-	.	.
1AA	-tram.	.	.	.	.	.	.
.	.	.	.	.	.	2c#i	.
=159	=159	=159	=159	=159	=159	=159	=159
1r	.	[0D	-tram.	3%2B-i	-tram.	1d	-tram.
.	.	.	.	3%4A	.	.	.
[1A	Qui	.	.	.	.	1r	.
=160.	=160.	=160.	=160.	=160.	=160.	=160.	=160.
2A]	.	0D_	.	3%4d	Qui	0f	Qui
2B	.	.	.	.	.	.	.
1A	se-	.	.	.	.	.	.
.	.	.	.	3%2c	se-	.	.
=161.	=161.	=161.	=161.	=161.	=161.	=161.	=161.
1.d	-des	0D]	.	3%4A	-des	1f	se-
.	.	.	.	.	.	1f	-des
.	.	.	.	3%2r	.	.	.
2c	.	.	.	.	.	.	.
=162	=162	=162	=162	=162	=162	=162	=162
*	*	*	*	*M2/1	*	*	*
*	*	*	*	*met(O2)	*	*	*
0A	ad	0r	.	0D	ad	0f	ad
=163.	=163.	=163.	=163.	=163.	=163.	=163.	=163.
1B-i	dex-	0r	.	1G	dex-	1g	dex-
1A	.	.	.	1F	.	[1a	.
=164.	=164.	=164.	=164.	=164.	=164.	=164.	=164.
1F	.	0r	.	1D	-te-	1a]	.
1G	-te-	.	.	[1d	-ram	[1b-i	.
=165	=165	=165	=165	=165	=165	=165	=165
0D	-ram	0r	.	0d_	.	2b-]	.
.	.	.	.	.	.	2a	-te-
.	.	.	.	.	.	[1a	-ram
=166.	=166.	=166.	=166.	=166.	=166.	=166.	=166.
1F	pa-	0r	.	0d_	.	2a]	.
.	.	.	.	.	.	2g	.
1G	.	.	.	.	.	[1g	pa-
=167.	=167.	=167.	=167.	=167.	=167.	=167.	=167.
0A	.	0r	.	1d]	.	2g]	.
.	.	.	.	.	.	4f	.
.	.	.	.	.	.	4e	.
.	.	.	.	1c	pa-	1f	.
=168	=168	=168	=168	=168	=168	=168	=168
1G	-tris,	0r	.	2d	.	0b-i	.
.	.	.	.	2e	.	.	.
[1d	mi-	.	.	[1f	-tris,	.	.
=169.	=169.	=169.	=169.	=169.	=169.	=169.	=169.
1d]	.	0r	.	1f]	.	1a	-tris,
1c	.	.	.	[1e	mi-	[1a	mi-
=170.	=170.	=170.	=170.	=170.	=170.	=170.	=170.
0B	-se-	0r	.	1e]	.	1a]	.
.	.	.	.	1d	-se-	1g	-se-
=171	=171	=171	=171	=171	=171	=171	=171
0A	-re-	0r	.	1f	-re-	1a	-re-
.	.	.	.	[1e	.	1cc	.
=172.	=172.	=172.	=172.	=172.	=172.	=172.	=172.
1G	.	0r	.	2e]	.	1b	.
.	.	.	.	2d	.	.	.
1A	.	.	.	1c	.	[1a	.
=173.	=173.	=173.	=173.	=173.	=173.	=173.	=173.
1F	.	0r	.	0d	.	1a]	.
1G	.	.	.	.	.	2g	.
.	.	.	.	.	.	2f	.
=174	=174	=174	=174	=174	=174	=174	=174
[0A	.	0r	.	1.c	-re	1e	.
.	.	.	.	.	.	1f	.
.	.	.	.	2d	.	.	.
=175.	=175.	=175.	=175.	=175.	=175.	=175.	=175.
1A]	.	0r	.	1c	.	1e	.
1B-i	-re	.	.	[1d	no-	1d	.
=176.	=176.	=176.	=176.	=176.	=176.	=176.	=176.
0A	no-	0r	.	2d]	.	0e	-re
.	.	.	.	4c#i	.	.	.
.	.	.	.	4d	.	.	.
.	.	.	.	2.c#i	.	.	.
.	.	.	.	4B	.	.	.
=177	=177	=177	=177	=177	=177	=177	=177
1.D	.	0r	.	1.d	.	1d	no-
.	.	.	.	.	.	[1f	.
2E	.	.	.	2c	.	.	.
=178.	=178.	=178.	=178.	=178.	=178.	=178.	=178.
2F	.	0r	.	1d	.	1f]	.
2G	.	.	.	.	.	.	.
1A	.	.	.	1c	.	1e	.
=179.	=179.	=179.	=179.	=179.	=179.	=179.	=179.
2F	.	0r	.	2d	.	1d	.
2G	.	.	.	1d	.	.	.
1E	.	.	.	.	.	1e	.
.	.	.	.	2c#i	.	.	.
=180	=180	=180	=180	=180	=180	=180	=180
0D	-bis.	0r	.	1d	-bis.	0A	-bis.
.	.	.	.	[1f	Quo-	.	.
=181.	=181.	=181.	=181.	=181.	=181.	=181.	=181.
0A	Quo-	0r	.	1f]	.	1r	.
.	.	.	.	1e	.	[1a	Quo-
=182.	=182.	=182.	=182.	=182.	=182.	=182.	=182.
1F	.	0r	.	1d	.	1a]	.
1E	-ni-	.	.	1e	-ni-	1g	-ni-
=183	=183	=183	=183	=183	=183	=183	=183
0D	-am	0r	.	[0A	-am	1.f	-am
.	.	.	.	.	.	4e	.
.	.	.	.	.	.	4d	.
=184.	=184.	=184.	=184.	=184.	=184.	=184.	=184.
1AA	.	0r	.	1A]	.	1c	.
1A	tu	.	.	1c	tu	1f	tu
=185.	=185.	=185.	=185.	=185.	=185.	=185.	=185.
2G	so-	0r	.	2B	so-	2e	so-
2A	.	.	.	2c	.	2f	.
2B	.	.	.	2d	.	2g	.
[2c	.	.	.	[2e	.	2a	.
=186	=186	=186	=186	=186	=186	=186	=186
2c]	.	0r	.	2e]	.	2b	.
2A	.	.	.	1f	.	1cc	.
4B	.	.	.	.	.	.	.
4A	.	.	.	.	.	.	.
4G	.	.	.	4e	.	4b	.
4F	.	.	.	4d	.	4a	.
=187.	=187.	=187.	=187.	=187.	=187.	=187.	=187.
1E	.	0r	.	4e	.	4b	.
.	.	.	.	4d	.	4a	.
.	.	.	.	4c	.	4g	.
.	.	.	.	4B	.	4f	.
2C	.	.	.	2c	.	2e	.
[2F	-lus	.	.	2A	.	2d	.
=188.	=188.	=188.	=188.	=188.	=188.	=188.	=188.
2F]	.	0r	.	2F	-lus	2c	-lus
2A	sanc-	.	.	1c	sanc-	1f	sanc-
1G	.	.	.	.	.	.	.
.	.	.	.	2B	.	2e	.
=189	=189	=189	=189	=189	=189	=189	=189
0F	-tus.	[0f	Tu	1c	-tus.	1f	-tus.
.	.	.	.	1A	.	1r	.
=190.	=190.	=190.	=190.	=190.	=190.	=190.	=190.
0BB-i	Tu	0f_	.	1r	.	0d	Tu
.	.	.	.	[1B-i	Tu	.	.
=191.	=191.	=191.	=191.	=191.	=191.	=191.	=191.
0D	so-	0f]	.	2B-i]	.	0d	so-
.	.	.	.	2A	.	.	.
.	.	.	.	[1A	so-	.	.
=192	=192	=192	=192	=192	=192	=192	=192
[0AA	-lus	[0e	so-	0A_	.	[0c	-lus
=193.	=193.	=193.	=193.	=193.	=193.	=193.	=193.
0AA_	.	0e_	.	1A]	.	0c]	.
.	.	.	.	[1E	-lus	.	.
=194.	=194.	=194.	=194.	=194.	=194.	=194.	=194.
0AA_	.	0e_	.	1E]	.	1.c	do-
.	.	.	.	[1A	do-	.	.
.	.	.	.	.	.	2d	.
=195	=195	=195	=195	=195	=195	=195	=195
0AA_	.	0e_	.	2A]	.	1e	.
.	.	.	.	4G	.	.	.
.	.	.	.	4F	.	.	.
.	.	.	.	2E	.	[1A	.
.	.	.	.	2D	.	.	.
=196.	=196.	=196.	=196.	=196.	=196.	=196.	=196.
0AA_	.	0e_	.	1.C	.	1A]	.
.	.	.	.	.	.	1A	-mi-
.	.	.	.	[2C	-mi-	.	.
=197.	=197.	=197.	=197.	=197.	=197.	=197.	=197.
0AA]	.	0e]	.	2C]	.	[0A	-nus.
.	.	.	.	2D	.	.	.
.	.	.	.	1C#i	.	.	.
=198	=198	=198	=198	=198	=198	=198	=198
0r	.	[0d	-lus	[0D	-nus.	0A]	.
=199.	=199.	=199.	=199.	=199.	=199.	=199.	=199.
[0F	Tu	0d_	.	0D_	.	0r	.
=200.	=200.	=200.	=200.	=200.	=200.	=200.	=200.
0F]	.	0d]	.	0D]	.	0A	Tu
=201	=201	=201	=201	=201	=201	=201	=201
[0G	so-	[0d	al-	0r	.	1.B	so-
.	.	.	.	.	.	2c	.
=202.	=202.	=202.	=202.	=202.	=202.	=202.	=202.
0G]	.	1d]	.	0r	.	1.d	.
.	.	[1B	-tis-	.	.	.	.
.	.	.	.	.	.	2e	.
=203.	=203.	=203.	=203.	=203.	=203.	=203.	=203.
0G	-lus	0B]	.	0r	.	1d	-lus
.	.	.	.	.	.	1g	al-
=204	=204	=204	=204	=204	=204	=204	=204
1.D	al-	[0A	-si-	0r	.	1f	-tis-
.	.	.	.	.	.	1d	.
[2F	-tis-	.	.	.	.	.	.
=205.	=205.	=205.	=205.	=205.	=205.	=205.	=205.
1F]	.	1A]	.	0r	.	1a	.
2E	.	[1e	-mus,	.	.	2b	.
[2A	.	.	.	.	.	[2cc	.
=206.	=206.	=206.	=206.	=206.	=206.	=206.	=206.
2A]	.	0e]	.	0r	.	2cc]	.
4G	.	.	.	.	.	4b	.
4F	.	.	.	.	.	4a	.
2E	.	.	.	.	.	2g	.
[2A	-si-	.	.	.	.	2e	.
=207	=207	=207	=207	=207	=207	=207	=207
1A]	.	[0d	al-	1.D	Tu	2.f	.
.	.	.	.	.	.	4g	.
1D	-mus,	.	.	.	.	1a	.
.	.	.	.	[2F	so-	.	.
=208.	=208.	=208.	=208.	=208.	=208.	=208.	=208.
1r	.	1d]	.	1F]	.	2d	.
.	.	.	.	.	.	2.a	.
1AA	al-	[1c	-tis-	2E	-lus	.	.
.	.	.	.	.	.	4g	.
.	.	.	.	[2A	al-	2f	.
=209.	=209.	=209.	=209.	=209.	=209.	=209.	=209.
1AA	-tis-	0c]	.	2A]	.	2.e	.
.	.	.	.	4G	.	.	.
.	.	.	.	4F	.	4d	.
1AA	-si-	.	.	2E	-tis-	1e	-si-
.	.	.	.	[2A	-si-	.	.
=210	=210	=210	=210	=210	=210	=210	=210
1.D	-mus,	[0d	-si-	1A]	.	1A	-mus,
.	.	.	.	1D	-mus,	[1a	Je-
[2F	.	.	.	.	.	.	.
=211.	=211.	=211.	=211.	=211.	=211.	=211.	=211.
1F]	.	1d]	.	0r	.	2a]	.
.	.	.	.	.	.	4g	.
.	.	.	.	.	.	4f	.
2E	Je-	[1e	-mus,	.	.	4g	.
.	.	.	.	.	.	4f	.
[2A	.	.	.	.	.	4e	.
.	.	.	.	.	.	4d	.
=212.	=212.	=212.	=212.	=212.	=212.	=212.	=212.
2A]	.	0e]	.	0r	.	2.c#i	.
4G	.	.	.	.	.	.	.
4F	.	.	.	.	.	4B	.
2E	.	.	.	.	.	1c#i	.
[2A	.	.	.	.	.	.	.
=213	=213	=213	=213	=213	=213	=213	=213
1A]	.	[0d	Je-	1.D	Je-	1d	-su
1D	-su	.	.	.	.	[1A	.
.	.	.	.	[2F	.	.	.
=214.	=214.	=214.	=214.	=214.	=214.	=214.	=214.
0r	.	1d]	.	2F]	.	2A]	.
.	.	.	.	2G	.	2B	.
.	.	[1f	-su	2A	.	2A	.
.	.	.	.	[2B-i	.	[2d	.
=215.	=215.	=215.	=215.	=215.	=215.	=215.	=215.
0D	Chri-	0f]	.	2B-]	.	2d]	.
.	.	.	.	2A	.	2c	.
.	.	.	.	2F	.	2d	.
.	.	.	.	2G	.	2B	.
=216	=216	=216	=216	=216	=216	=216	=216
[0AA	.	[0e	Chri-	1A	.	[0c#i	.
.	.	.	.	[1A	-su	.	.
=217.	=217.	=217.	=217.	=217.	=217.	=217.	=217.
0AA_	.	0e_	.	1A]	.	0c#]	.
.	.	.	.	2G	.	.	.
.	.	.	.	2F	.	.	.
=218.	=218.	=218.	=218.	=218.	=218.	=218.	=218.
0AA]	.	0e]	.	0E	Chri-	0c#i	Chri-
=219	=219	=219	=219	=219	=219	=219	=219
1.F	-ste,	[0A	-ste,	1.D	-ste,	1d	-ste,
.	.	.	.	.	.	1r	.
2E	.	.	.	2C	.	.	.
=220.	=220.	=220.	=220.	=220.	=220.	=220.	=220.
1D	.	0A_	.	1F	.	1.a	Je-
1C	Je-	.	.	1E	Je-	.	.
.	.	.	.	.	.	2g	.
=221.	=221.	=221.	=221.	=221.	=221.	=221.	=221.
1D	-su	0A]	.	1D	-su	1f	-su
1E	.	.	.	1C	.	1e	.
=222	=222	=222	=222	=222	=222	=222	=222
2.F	Chri-	[0d	Chri-	2.D	Chri-	1A	.
4G	.	.	.	4E	.	.	.
1A	.	.	.	2F	.	2.d	Chri-
.	.	.	.	2G	.	.	.
.	.	.	.	.	.	4e	.
=223.	=223.	=223.	=223.	=223.	=223.	=223.	=223.
2.D	.	0d_	.	1A	.	2f	.
.	.	.	.	.	.	2g	.
4E	.	.	.	.	.	.	.
2F	.	.	.	[1D	.	2a	.
2G	.	.	.	.	.	[2b-i	.
=224.	=224.	=224.	=224.	=224.	=224.	=224.	=224.
1A	.	0d]	.	1D]	.	4b-]	.
.	.	.	.	.	.	4a	.
.	.	.	.	.	.	1a	.
1B	.	.	.	1G	.	.	.
.	.	.	.	.	.	2g	.
=225	=225	=225	=225	=225	=225	=225	=225
1c	-ste,	[0A	ste,	1F	-ste,	2a	.
.	.	.	.	.	.	1f	.
1d	Je-	.	.	1D	.	.	.
.	.	.	.	.	.	4e	.
.	.	.	.	.	.	4d	.
=226.	=226.	=226.	=226.	=226.	=226.	=226.	=226.
2e	.	1A]	.	1r	.	1c	-ste,
1e	-su	.	.	.	.	.	.
.	.	[1G	.	[1B	Je-	2r	.
4d	.	.	.	.	.	[2g	Je-
4c	.	.	.	.	.	.	.
=227.	=227.	=227.	=227.	=227.	=227.	=227.	=227.
1.B	.	0G]	.	2B]	.	2g]	.
.	.	.	.	1d	.	2f	.
.	.	.	.	.	.	1d	.
[2d	Chri-	.	.	2B	.	.	.
=228	=228	=228	=228	=228	=228	=228	=228
2d]	.	[0D	Chri-	2A	-su	2.f	-su
2c	.	.	.	2.d	Chri-	.	.
.	.	.	.	.	.	4g	.
2A	.	.	.	.	.	2a	.
.	.	.	.	4e	.	.	.
[2d	.	.	.	[2f	.	[2a	Chri-
=229.	=229.	=229.	=229.	=229.	=229.	=229.	=229.
4d]	.	1D]	.	2f]	.	2a]	.
4c	.	.	.	.	.	.	.
2A	.	.	.	2d	.	2f	.
2G	.	[1E	.	2c	.	2e	.
2c	.	.	.	[2e	.	[2g	.
=230.	=230.	=230.	=230.	=230.	=230.	=230.	=230.
2B	.	0E]	.	2e]	.	2g]	.
1A	.	.	.	2d	.	2a	.
.	.	.	.	2.c#i	.	2g	.
2G	.	.	.	.	.	2e	.
.	.	.	.	4B	.	.	.
=231	=231	=231	=231	=231	=231	=231	=231
[0Al	-ste.	[0Dl	-ste.	[0dl	-ste.	0f	-ste.
=232.	=232.	=232.	=232.	=232.	=232.	=232.	=232.
0A]	.	0D]	.	0d]	.	0al	.
!!LO:LB:i:g=z
=233||	=233||	=233||	=233||	=233||	=233||	=233||	=233||
*M2/1	*	*M2/1	*	*M2/1	*	*M2/1	*
*met(C)	*	*met(C)	*	*met(C)	*	*met(C)	*
*MM300	*	*MM300	*	*MM300	*	*MM300	*
*>C	*>C	*>C	*>C	*>C	*>C	*>C	*>C
!!section: Cum sancto
!!!OMD: Cum sancto
!	!	!LO:TX:Z=8:t=T omits rests. 	!	!	!	!	!
0A	Cum	1A	Cum	0A	Cum	0e	Cum
.	.	1c	.	.	.	.	.
=234	=234	=234	=234	=234	=234	=234	=234
1D	sanc-	1d	sanc-	1A	sanc-	1f	sanc-
1E	.	1c	.	1G	.	2e	.
.	.	.	.	.	.	2g	.
=235	=235	=235	=235	=235	=235	=235	=235
1D	.	2d	.	1A	-to	2f	.
.	.	2f	.	.	.	1a	.
2AA	.	2e	.	1r	.	.	.
[2D	.	2d	.	.	.	2b-i	.
=236	=236	=236	=236	=236	=236	=236	=236
2D]	.	1A	.	1F	spi-	2a	.
2C	.	.	.	.	.	1cc	.
2AA	.	1c	.	1E	.	.	.
2C	.	.	.	.	.	[2a	.
=237	=237	=237	=237	=237	=237	=237	=237
1BB-i	.	1d	.	1D	.	2a]	.
.	.	.	.	.	.	2g	.
1AA	-to	1e	-to	1C	.	1a	-to
=238	=238	=238	=238	=238	=238	=238	=238
1BB-i	spi-	1d	spi-	1D	.	2g	spi-
.	.	.	.	.	.	2f	.
1C	-ri-	1c	.	1E	.	1e	.
=239	=239	=239	=239	=239	=239	=239	=239
0D	-tu,	0B-i	.	0F	.	0d	.
=240	=240	=240	=240	=240	=240	=240	=240
0AA	.	0A	-ri-	0E	-ri-	0c	-ri-
=241	=241	=241	=241	=241	=241	=241	=241
0r	.	0D	-tu,	1.F	-tu,	1d	-tu,
.	.	.	.	.	.	[1A	.
.	.	.	.	2E	.	.	.
=242	=242	=242	=242	=242	=242	=242	=242
1r	.	1d	in	1D	.	2A]	.
.	.	.	.	.	.	2B	.
[1AA	in	1e	.	[1C	in	2c	.
.	.	.	.	.	.	2d	.
=243	=243	=243	=243	=243	=243	=243	=243
1AA]	.	0A	.	2C]	.	1e	.
.	.	.	.	4D	.	.	.
.	.	.	.	4E	.	.	.
1D	.	.	.	1F	.	1d	.
=244	=244	=244	=244	=244	=244	=244	=244
2AA	glo-	1A	glo-	2E	glo-	2r	.
1D	.	.	.	2F	.	1A	in
.	.	1d	.	1D	.	.	.
[2F	.	.	.	.	.	2d	glo-
=245	=245	=245	=245	=245	=245	=245	=245
4F]	.	1A	.	0F	-ri-	2c	.
4E	.	.	.	.	.	.	.
4D	.	.	.	.	.	1f	.
4C	.	.	.	.	.	.	.
2BB-i	.	1B-i	.	.	.	.	.
2D	.	.	.	.	.	2d	.
=246	=246	=246	=246	=246	=246	=246	=246
2C	.	1A	.	0c	-a	2e	.
1F	.	.	.	.	.	2f	.
.	.	1G	-ri-	.	.	1g	-ri-
2E	-ri-	.	.	.	.	.	.
=247	=247	=247	=247	=247	=247	=247	=247
0F	-a	0F	-a	2r	.	1a	-a
.	.	.	.	2c	de-	.	.
.	.	.	.	2d	.	2f	de-
.	.	.	.	2c	.	[2cc	.
=248	=248	=248	=248	=248	=248	=248	=248
0r	.	0F	de-	2.f	.	4cc]	.
.	.	.	.	.	.	4b	.
.	.	.	.	.	.	2.a	.
.	.	.	.	4e	.	.	.
.	.	.	.	2d	.	.	.
.	.	.	.	.	.	4g	.
.	.	.	.	[2c	.	2f	.
=249	=249	=249	=249	=249	=249	=249	=249
0r	.	0G	-i	4c]	.	2e	.
.	.	.	.	4B	.	.	.
.	.	.	.	1B	-i	2.d	.
.	.	.	.	.	.	4c	.
.	.	.	.	[2d	pa-	2B	.
=250	=250	=250	=250	=250	=250	=250	=250
0r	.	1F	pa-	4d]	.	2A	-i
.	.	.	.	4c	.	.	.
.	.	.	.	4B	.	1d	pa-
.	.	.	.	4A	.	.	.
.	.	1E	.	2.G	.	.	.
.	.	.	.	.	.	2c#i	.
.	.	.	.	4F	.	.	.
=251	=251	=251	=251	=251	=251	=251	=251
1r	.	0D	-tris.	1A	-tris.	0d	-tris.
[1D	de-	.	.	1r	.	.	.
=252	=252	=252	=252	=252	=252	=252	=252
1D]	.	0f	A-	1A	A-	1r	.
1D	-i	.	.	1d	.	[1a	A-
=253	=253	=253	=253	=253	=253	=253	=253
0A	pa-	[0e	.	1.c	.	2a]	.
.	.	.	.	.	.	2b	.
.	.	.	.	.	.	[1cc	.
.	.	.	.	2A	.	.	.
=254	=254	=254	=254	=254	=254	=254	=254
1.c	.	0e]	.	1A	.	2cc]	.
.	.	.	.	.	.	2b	.
.	.	.	.	1c	.	[1g	.
2B	.	.	.	.	.	.	.
=255	=255	=255	=255	=255	=255	=255	=255
1.G	.	0d	.	1.B	.	2g]	.
.	.	.	.	.	.	2d	.
.	.	.	.	.	.	2g	.
2F	.	.	.	2A	.	2a	.
=256	=256	=256	=256	=256	=256	=256	=256
[0D	-tris.	1d	-men,	1A	-men,	1.f	.
.	.	1B	a-	2r	.	.	.
.	.	.	.	[2d	a-	2g	.
=257	=257	=257	=257	=257	=257	=257	=257
1D]	.	1A	.	4d]	.	[0a	.
.	.	.	.	4c	.	.	.
.	.	.	.	2.A	.	.	.
2AA	A-	1e	.	.	.	.	.
.	.	.	.	4G	.	.	.
2C	.	.	.	2E	.	.	.
=258	=258	=258	=258	=258	=258	=258	=258
2D	.	1d	.	2F	.	0a]	.
2.F	.	.	.	2D	.	.	.
.	.	1c	.	2r	.	.	.
4G	.	.	.	.	.	.	.
2A	.	.	.	[2F	.	.	.
=259	=259	=259	=259	=259	=259	=259	=259
2D	.	1d	.	2F]	.	[0a	-men,
2F	.	.	.	2D	.	.	.
2E	.	1e	.	1C	.	.	.
2AA	.	.	.	.	.	.	.
=260	=260	=260	=260	=260	=260	=260	=260
2r	.	1d	.	2D	.	0a]	.
1D	.	.	.	2.F	.	.	.
.	.	1f	.	.	.	.	.
.	.	.	.	4G	.	.	.
2F	.	.	.	2A	.	.	.
=261	=261	=261	=261	=261	=261	=261	=261
2G	.	0e	.	2B	.	2g	a-
1A	.	.	.	2.c	.	2.cc	.
.	.	.	.	4d	.	4b	.
2E	.	.	.	2e	.	2g	.
=262	=262	=262	=262	=262	=262	=262	=262
2D	.	0A	.	2.f	.	2f	.
2.F	.	.	.	.	.	2.a	.
.	.	.	.	4e	.	.	.
.	.	.	.	2d	.	.	.
4G	.	.	.	.	.	4g	.
2A	.	.	.	2c	.	2e	.
=263	=263	=263	=263	=263	=263	=263	=263
2D	.	0d	.	2d	.	2f	.
2G	.	.	.	2B	.	2g	.
2F	.	.	.	2.A	.	1a	.
[2D	.	.	.	.	.	.	.
.	.	.	.	4G	.	.	.
=264	=264	=264	=264	=264	=264	=264	=264
2D]	.	1A	.	2F	.	2d	.
2AA	.	.	.	2E	.	2c	.
2BB	.	1G	.	2D	.	2d	.
2C	.	.	.	2G	.	2e	.
=265	=265	=265	=265	=265	=265	=265	=265
2D	.	1D	.	2F	.	2f	.
2BB	.	.	.	2G	.	2.d	.
1AA	.	1E	.	1A	.	.	.
.	.	.	.	.	.	4c#i	.
.	.	.	.	.	.	4c#i	.
.	.	.	.	.	.	4B	.
=266	=266	=266	=266	=266	=266	=266	=266
*^	*	*	*	*	*	*	*
0Al	0Dl	-men.	0Dl	-men.	0Al	-men.	0dl	-men.
*v	*v	*	*	*	*	*	*	*
==	==	==	==	==	==	==	==
*-	*-	*-	*-	*-	*-	*-	*-
!!!RDF**kern: l=long note in original notation
!!!RDF**kern: i=editorial accidental
!!!ENC: Jesse Rodin and Emily Zazulia
!!!END: 2019/01/10/
!!!EED: Jesse Rodin & Emily Zazulia
!!!EEV: 2019/01/11/
!!!ONB: Translated from MusicXML and edited on 2019/01/11/ by Craig Sapp
!!muse2ps: T^@{OPR}^u^@{ONM}{. }@{OTL}^C^@{SMS}, @{folio}\nEd. @{EED}^v90,90,90,130i2c102z18l2650
